src/main/resources/icons/meetNewUi@20x20.svg

<!-- Copyright 2000-2023 JetBrains s.r.o. and contributors. Use of this source code is governed by the Apache 2.0 license. -->
<svg width="20" height="20" viewBox="0 0 20 20" fill="none" xmlns="http://www.w3.org/2000/svg">
<g clip-path="url(#clip0_7109_52078)">
<g clip-path="url(#clip1_7109_52078)">
<path d="M6.76993 8.03602C7.9384 6.87658 8.765 5.42306 9.37509 3.61672C9.98519 5.42307 10.8118 6.87658 11.9803 8.03602C13.1472 9.19393 14.6128 10.0165 16.4395 10.6249C14.6128 11.2334 13.1472 12.0559 11.9803 13.2139C10.8118 14.3733 9.98522 15.8268 9.37514 17.6331C8.76504 15.8268 7.93842 14.3733 6.76996 13.2139C5.60303 12.0559 4.13748 11.2334 2.31077 10.6249C4.13747 10.0165 5.60301 9.19393 6.76993 8.03602Z" stroke="#6C707E" stroke-width="1.5"/>
<path d="M16.2411 6.13383C17.556 6.13383 18.6219 5.06793 18.6219 3.75307C18.6219 2.43822 17.556 1.37231 16.2411 1.37231C14.9263 1.37231 13.8604 2.43822 13.8604 3.75307C13.8604 5.06793 14.9263 6.13383 16.2411 6.13383Z" fill="#6C707E"/>
</g>
</g>
<defs>
<clipPath id="clip0_7109_52078">
<rect width="20" height="20" fill="white"/>
</clipPath>
<clipPath id="clip1_7109_52078">
<rect width="20" height="20" fill="white"/>
</clipPath>
</defs>
</svg>

<svg xmlns="http://www.w3.org/2000/svg" width="20" height="20" fill="none"><g clip-path="url(#a)"><g clip-path="url(#b)"><path stroke="#6C707E" stroke-width="1.5" d="M6.77 8.036c1.168-1.16 1.995-2.613 2.605-4.42.61 1.807 1.437 3.26 2.605 4.42 1.167 1.158 2.633 1.98 4.46 2.589-1.827.608-3.293 1.43-4.46 2.589-1.168 1.16-1.995 2.613-2.605 4.42-.61-1.807-1.437-3.26-2.605-4.42-1.167-1.158-2.633-1.98-4.46-2.59 1.827-.607 3.293-1.43 4.46-2.588Z"/><path fill="#6C707E" d="M16.241 6.134a2.38 2.38 0 1 0 0-4.762 2.38 2.38 0 0 0 0 4.762"/></g></g><defs><clipPath id="a"><path fill="#fff" d="M0 0h20v20H0z"/></clipPath><clipPath id="b"><path fill="#fff" d="M0 0h20v20H0z"/></clipPath></defs></svg>
